modules/coreui-icons-brand/icons/gumroad.svg

<svg version="1.1" xmlns="http://www.w3.org/2000/svg" width="32" height="32" viewBox="0 0 32 32">
<title>gumroad</title>
<path d="M21.099 20.094c1.813 0 1.813 2.714 0 2.714-1.807 0-1.807-2.714 0-2.714zM28.438 1.479c1.807 0 1.807 2.714 0 2.714-1.813 0-1.813-2.714 0-2.714zM4.427 4.141h21.49c0.49 0.943 1.458 1.536 2.521 1.536 1.568 0 2.839-1.271 2.839-2.839s-1.271-2.839-2.839-2.839c-1.188 0-2.208 0.734-2.63 1.771h-21.38c-2.073 0-3.703 1.578-3.703 3.589v22.875c0 2.042 1.698 3.766 3.703 3.766h22.875c2.016 0 3.651-1.688 3.651-3.766v-13.573c0-2.042-1.635-3.703-3.651-3.703h-13.568c-2.073 0-3.823 1.698-3.823 3.703v4.266c0 1.979 1.714 3.589 3.823 3.589h4.74c0.432 1.073 1.474 1.771 2.625 1.771 1.568 0 2.839-1.271 2.839-2.839s-1.271-2.839-2.839-2.839c-1.057 0-2.031 0.594-2.516 1.536h-4.849c-0.698 0-1.453-0.464-1.453-1.219v-4.266c0-0.698 0.693-1.333 1.453-1.333h13.568c0.719 0 1.281 0.589 1.281 1.333v13.573c0 0.755-0.589 1.396-1.281 1.396h-22.875c-0.708 0-1.333-0.656-1.333-1.396v-22.875c0-0.693 0.578-1.214 1.333-1.214z"></path>
</svg>

<svg xmlns="http://www.w3.org/2000/svg" width="32" height="32" viewBox="0 0 32 32"><path d="M21.099 20.094c1.813 0 1.813 2.714 0 2.714-1.807 0-1.807-2.714 0-2.714zm7.339-18.615c1.807 0 1.807 2.714 0 2.714-1.813 0-1.813-2.714 0-2.714zM4.427 4.141h21.49a2.84 2.84 0 10-.109-2.371H4.428C2.355 1.77.725 3.348.725 5.359v22.875C.725 30.276 2.423 32 4.428 32h22.875c2.016 0 3.651-1.688 3.651-3.766V14.661c0-2.042-1.635-3.703-3.651-3.703H13.735c-2.073 0-3.823 1.698-3.823 3.703v4.266c0 1.979 1.714 3.589 3.823 3.589h4.74a2.83 2.83 0 002.625 1.771 2.839 2.839 0 100-5.678 2.835 2.835 0 00-2.516 1.536h-4.849c-.698 0-1.453-.464-1.453-1.219V14.66c0-.698.693-1.333 1.453-1.333h13.568c.719 0 1.281.589 1.281 1.333v13.573c0 .755-.589 1.396-1.281 1.396H4.428c-.708 0-1.333-.656-1.333-1.396V5.358c0-.693.578-1.214 1.333-1.214z"/></svg>
